X: 8944
T: Curragh Races, The
R: reel
M: 4/4
K: Adorian
|:eAcA EAcA|DGBG dGBG|eAcA eAcA|dBGB cAA2|
eAcA EAcA|DGBG dGBG|c2cd BAGB|dBGB cAA2:|
|:c2ce gece|cege dGBG|cBce gece|dBGB cAA2|
c2ec gcec|cege dGBG|c2cd BAGB|dBGB cAA2:|

